X:685
T: "Gebeth thut noth"
N: Z1366
O: Europa, Mitteleuropa, Deutschland, Niederrhein
R: Kinder - Lied
M: 2/4
L: 1/8
K: Eb
G2FF | E2z2 |
GAFG | E2z2 |
BBBB | ccc2 |
AAAA | BBB2 |
G2FF | E2z2

@@@ Tune index: 10443
